assets/graphics/logo-symbol.svg

<svg height="650" viewBox="0 0 453 650" width="453" xmlns="http://www.w3.org/2000/svg"><g fill="none" fill-rule="evenodd"><path d="m81.4841699 19.4861616 144.8887601 134.6929814 146.667508-134.6929814h39.457904v391.3028934l-186.124008 181.321791-186.8367892-181.322353v-391.3023314z" fill="#fff" stroke="#979797"/><path d="m338.98 0-112.616 112.599-112.599-112.599h-113.765v422.954l226.209 226.209h.332l226.209-226.209v-422.954zm-112.434 399.691 143.455-143.456-96.963-96.963 113.577-113.578v349.891l-160.119 160.119h-.242l-160.119-160.119v-349.891l113.577 113.578-96.963 96.963 143.455 143.456zm-50.694-143.465 50.644-50.418 50.402 50.418-50.402 50.401z" fill="#eee" fill-rule="nonzero"/></g></svg>

<?xml version="1.0" encoding="UTF-8"?>
<svg width="453px" height="650px" viewBox="0 0 453 650" version="1.1" xmlns="http://www.w3.org/2000/svg" xmlns:xlink="http://www.w3.org/1999/xlink">
    <g id="Page-1" stroke="none" stroke-width="1" fill="none" fill-rule="evenodd">
        <path d="M81.4841699,19.4861616 L226.37293,154.179143 L373.040438,19.4861616 L412.498342,19.4861616 L412.498342,410.789055 L226.374334,592.110846 L39.5375448,410.788493 L39.5375448,19.4861616 L81.4841699,19.4861616 Z" id="Rectangle" stroke="#979797" fill="#FFFFFF"></path>
        <g id="logo-symbol" fill="#eeeeee" fill-rule="nonzero">
            <path d="M338.98,0 L226.364,112.599 L113.765,0 L0,0 L0,422.954 L226.209,649.163 L226.541,649.163 L452.75,422.954 L452.75,0 L338.98,0 Z M226.546,399.691 L370.001,256.235 L273.038,159.272 L386.615,45.694 L386.615,395.585 L226.496,555.704 L226.254,555.704 L66.135,395.585 L66.135,45.694 L179.712,159.272 L82.749,256.235 L226.204,399.691 L226.546,399.691 Z M175.852,256.226 L226.496,205.808 L276.898,256.226 L226.496,306.627 L175.852,256.226 Z" id="Fill-307"></path>
        </g>
    </g>
</svg>
